src/components/Icon/icons/analytics.svg

<svg xmlns="http://www.w3.org/2000/svg" width="100%" height="100%" viewBox="0 0 20 20" fill="none">
  <path d="M6 14V12M10 14V10M14 14V6M4 18C2.89543 18 2 17.1046 2 16V4C2 2.89543 2.89543 2 4 2H16C17.1046 2 18 2.89543 18 4V16C18 17.1046 17.1046 18 16 18H4Z" stroke="currentColor" stroke-width="1.66667" stroke-linecap="round" stroke-linejoin="round"/>
</svg>

<svg xmlns="http://www.w3.org/2000/svg" fill="none" viewBox="0 0 20 20"><path stroke="currentColor" stroke-linecap="round" stroke-linejoin="round" stroke-width="1.667" d="M6 14v-2m4 2v-4m4 4V6M4 18a2 2 0 0 1-2-2V4a2 2 0 0 1 2-2h12a2 2 0 0 1 2 2v12a2 2 0 0 1-2 2z"/></svg>
